!!!id: 16xx:997
!!!COM: Anonim
!!!OTL: Officium Octavi Toni – Sanctus
!!!PDT:
!!!SMS-siglum: PL-Kk
!!!SMS-shelfmark: Kk.I.6
!!!NIFC-rismID: 1001136049
!!!URL-scan: http://repozytorium.nifc.pl/skany/pl-kk-nut--i-6
!!!ONB-nifc: UWAGA: C (skan 0033-0037, s. 62-71), T (skan 0136-0141, s. 76-86), B (skan 0246-0251, s. 75-84) Części Officium: 1. Kyrie, 2. Et in terra, 3. Patrem, 4. Sanctus, 5. Agnus Dei
!!!SMS-variant:
!!!SMS-altvar:
**kern	**text	**kern	**text	**kern	**text
*part4	*part4	*part3	*part3	*part1	*part1
*staff4	*staff4	*staff3	*staff3	*staff1	*staff1
*I"[Baſsus.]	*	*I"[Tenor.]	*	*I"[Cantus.]	*
*I'[B]	*	*I'[T]	*	*I'[S]	*
*clefF3	*	*clefC3	*	*clefC4	*
*k[]	*	*k[]	*	*k[]	*
*M2/1	*	*M2/1	*	*M2/1	*
*met(C|)	*	*met(C|)	*	*met(C|)	*
=1-	=1-	=1-	=1-	=1-	=1-
!!LO:TX:t=P:problem:all\center:global
!!LO:TX:t=P:problem:4/center:global
*	*	*	*	*lig	*
!LO:TX:t=P:problem:przed kluczem inicjał S	!	!LO:TX:t=P:problem:przed kluczem inicjał S	!	!LO:TX:t=P:problem:przed kluczem inicjał S	!
!LO:TX:t=P:problem:reklamant	!	!	!	!	!
1rF	.	0r	.	1G	SAn-
*lig	*	*	*	*	*
1C	SAn-	.	.	1c	.
*	*	*	*	*Xlig	*
=2-	=2-	=2-	=2-	=2-	=2-
!	!	!	!	!LO:TX:t=P:problem:kreska pseudotaktowa	!
1F	.	0r	.	1A	ctus
*Xlig	*	*	*	*	*
1D	-ctus	.	.	2.d\	San-
!	!	!	!	!LO:TX:t=P:problem:kreska pseudotaktowa	!
.	.	.	.	4c\	.
=3-	=3-	=3-	=3-	=3-	=3-
2.G\	San-	1r	.	4B\	.
.	.	.	.	4A/	.
.	.	.	.	1B	.
4F/	.	.	.	.	.
*	*	*lig	*	*	*
4E/	.	1G	SAn-	.	.
4D/	.	.	.	.	.
2E/	.	.	.	1G/	-ctus
=4-	=4-	=4-	=4-	=4-	=4-
1C	-ctus	1c	.	.	.
*	*	*	*	*	*ij
!	!	!	!	!LO:TX:t=P:problem:kreska pseudotaktowa	!
.	.	.	.	2.c\	San-
*	*	*Xlig	*	*	*
2.F/	San-	1A	-ctus	.	.
.	.	.	.	4B\	.
.	.	.	.	4A/	.
4E/	.	.	.	4G/	.
=5-	=5-	=5-	=5-	=5-	=5-
!	!	!	!	!LO:TX:t=P:problem:kreska pseudotaktowa	!
4D/	.	2.d\	San-	1A	-ctus
*	*	*	*	*	*Xij
4C/	.	.	.	.	.
2D/	.	.	.	.	.
.	.	4c/	.	.	.
2.E/	.	4B/	.	2.G/	San-
.	.	4A/	.	.	.
.	.	2.B/	.	.	.
!LO:SIC:v:t=custos G	!	!	!	!	!
4F/	.	.	.	4A/	.
=6-	=6-	=6-	=6-	=6-	=6-
!LO:LB:g=original	!	!	!	!	!
2G\	.	.	.	2B\	.
.	.	4G/	.	.	.
!	!	!	!	!LO:SIC:v:t=custos d	!
2C/	.	2.c/	.	2c\	.
!	!	!	!	!LO:LB:g=original	!
1G	.	.	.	1d	.
.	.	8B/L	.	.	.
.	.	8A/J	.	.	.
!	!	!LO:TX:t=P:problem:kreska pseudotaktowa	!	!	!
.	.	2B/	.	.	.
=7-	=7-	=7-	=7-	=7-	=7-
!	!	!LO:SIC:v:t=custos e	!	!LO:TX:t=P:problem:kreska pseudotaktowa	!
2C/	-ctus	2c/	ctus	1c,<	-ctus
*	*	*lig	*	*	*
!	!	!LO:LB:g=original	!	!	!
2.c\	San-	1e	San-	.	.
.	.	.	.	2.A/	San-
4B\	.	.	.	.	.
*	*	*col	*	*	*
4A\	.	2.f\	.	.	.
4G\	.	.	.	4B\	.
*	*	*Xlig	*	*	*
=8-	=8-	=8-	=8-	=8-	=8-
2F/	.	.	.	4c\	.
.	.	4e\	.	4B\	.
*	*	*Xcol	*	*	*
2G\	.	4d\	.	4A/	.
!	!	!	!	!LO:TX:t=P:problem:kreska pseudotaktowa	!
.	.	4c\	.	4G/	.
*	*	*	*	*lig	*
1D	.	1d	.	1A	.
=9-	=9-	=9-	=9-	=9-	=9-
*	*	*	*	*col	*
0G	-ctus	1d	-ctus	2.B\	.
*	*	*	*	*Xlig	*
.	.	.	.	4c\	.
*	*	*	*	*Xcol	*
.	.	2rA	.	1d	.
.	.	2G/	Do-	.	.
=10-	=10-	=10-	=10-	=10-	=10-
0rF	.	2A/	-mi-	1c	-ctus
.	.	2c/	-nus	.	.
.	.	4B/	De-	0r	.
.	.	4c/	.	.	.
.	.	4d\	.	.	.
.	.	4B/	.	.	.
=11-	=11-	=11-	=11-	=11-	=11-
1C	Do-	2c/	.	.	.
.	.	2e\	-us	.	.
2D/	-mi-	2.d\	Sab-	1r	.
2F/	-nus	.	.	.	.
.	.	4d\	-ba-	.	.
=12-	=12-	=12-	=12-	=12-	=12-
4E/	De-	1G	-oth	2r	.
4F/	.	.	.	.	.
!	!	!	!	!LO:TX:t=P:problem:kreska pseudotaktowa	!
4G\	.	.	.	2G/	Do-
4E/	.	.	.	.	.
2F/	.	1r	.	2A/	-mi-
!LO:SIC:v:t=custos G	!	!	!	!LO:TX:t=P:problem:kreska pseudotaktowa	!
2A\	-us	.	.	2c\	-nus
=13-	=13-	=13-	=13-	=13-	=13-
!LO:LB:g=original	!	!	!	!	!
2.G\	Sab-	1r	.	4B\	De-
.	.	.	.	4c\	.
.	.	.	.	4d\	.
4G\	-ba-	.	.	4B\	.
!	!	!LO:SIC:v:t=custos d	!	!	!
1C	-oth	1r	.	2c\	.
!	!	!	!	!LO:TX:t=P:problem:kreska pseudotaktowa	!
!	!	!	!	!LO:SIC:v:t=custos d	!
.	.	.	.	2e\	-us
=14-	=14-	=14-	=14-	=14-	=14-
!	!	!LO:LB:g=original	!	!LO:LB:g=original	!
1r	.	2r	.	2.d\	Sab-
.	.	1d	Do-	.	.
.	.	.	.	4d\	-ba-
2r	.	.	.	1G	-oth
*	*ij	*	*	*	*
2G\	Do-	2B/	-mi-	.	.
=15-	=15-	=15-	=15-	=15-	=15-
2A\	-mi-	1c	-nus	1r	.
2c\	-nus	.	.	.	.
*	*	*	*	*	*ij
4B\	De-	2d\	De-	1G	Do-
4c\	.	.	.	.	.
4d\	.	2g\	-us	.	.
4B\	.	.	.	.	.
=16-	=16-	=16-	=16-	=16-	=16-
2c\	.	2f\	Sab-	1A	-mi-
2c\	-us	1e	-ba-	.	.
2.A\	Sab-	.	.	1c	-nus
.	.	4d\	.	.	.
4A\	-ba-	4c/	.	.	.
=17-	=17-	=17-	=17-	=17-	=17-
1G	-oth	2d,<\	oth	2B\	De-
*	*Xij	*	*	*	*
!	!	!	!	!LO:TX:t=P:problem:kreska pseudotaktowa	!
.	.	2d\	[San-	2B\	-us
2rD	.	2c,</	-ctus]	2c\	Sab-
!	!	!	!	!LO:TX:t=P:problem:kreska pseudotaktowa	!
2D/	Do-	2d\	Do-	2A/	-ba-
=18-	=18-	=18-	=18-	=18-	=18-
2E/	-mi-	2B/	-mi-	2G/	-oth
!LO:SIC:v:t=custos F	!	!	!	!LO:TX:t=P:problem:kreska pseudotaktowa	!
2G\	-nus	2B/	-nus	2B\	Do-
!LO:LB:g=original	!	!	!	!	!
4F/	De-	2c/	De-	2A/	-mi-
4G\	.	.	.	.	.
!	!	!	!	!LO:TX:t=P:problem:kreska pseudotaktowa	!
4A\	.	2A/	-us	2c\	-nus
4F/	.	.	.	.	.
=19-	=19-	=19-	=19-	=19-	=19-
2G\	.	2d\	Sab-	2B\	De-
!	!	!LO:SIC:v:t=custos d	!	!LO:SIC:v:t=custos A	!
2C/	-us	2e\	-ba-	2c\	-us
*	*	*	*	*lig	*
!	!	!LO:LB:g=original	!	!LO:PB:g=original	!
2.D/	Sab-	1d	-oth	1A	Sa-
4D/	-ba-	.	.	.	.
=20-	=20-	=20-	=20-	=20-	=20-
*	*	*	*	*col	*
1G	-oth	2rA	.	2.B\	.
.	.	2G/	Ple-	.	.
*	*	*	*	*Xlig	*
!	!	!	!	!LO:TX:t=P:problem:kreska pseudotaktowa	!
.	.	.	.	4A\	.
*	*	*	*	*Xcol	*
2rD	.	2G/	-ni	2B\	.
!	!	!	!	!LO:TX:t=P:problem:kreska pseudotaktowa	!
2C/	Ple-	2G/	ſunt	2c\	-ba-
=21-	=21-	=21-	=21-	=21-	=21-
2C/	-ni	1c	Cae-	1G	-oth
*	*	*	*	*	*Xij
2C/	ſunt	.	.	.	.
1F	Cae-	2A/	-li	0r	.
.	.	2A/	et	.	.
=22-	=22-	=22-	=22-	=22-	=22-
2D/	-li	1d	ter-	.	.
!LO:TX:t=P:problem:korekta 2D	!	!	!	!	!
2C/	et	.	.	.	.
1G	ter-	1B	-ra	2r	.
!	!	!	!	!LO:TX:t=P:problem:kreska pseudotaktowa	!
.	.	.	.	2G/	Ple-
=23-	=23-	=23-	=23-	=23-	=23-
1E	-ra	2.e\	glo-	2G/	-ni
!	!	!	!	!LO:TX:t=P:problem:kreska pseudotaktowa	!
.	.	.	.	2G/	sunt
.	.	4d\	-ri-	.	.
2.A\	glo-	2c/	-a	1c	Cae-
.	.	2A/	tu-	.	.
!LO:SIC:v:t=custos F	!	!	!	!	!
4A\	-ri-	.	.	.	.
=24-	=24-	=24-	=24-	=24-	=24-
!LO:PB:g=original	!	!	!	!	!
2F/	-a	2c/	-a	2A/	.
!	!	!	!	!LO:TX:t=P:problem:kreska pseudotaktowa	!
2G\	tu-	2.f\	glo-	2A/	-li
1D	-a	.	.	1d	et
.	.	4e\	.	.	.
.	.	2.d\	-ri-	.	.
=25-	=25-	=25-	=25-	=25-	=25-
2.G\	glo-	.	.	2B\	ter-
.	.	4c/	.	.	.
*	*	*	*	*lig	*
.	.	4B/	.	1G	.
4F/	.	4A/	.	.	.
2.E/	.	2B/	.	.	.
!	!	!LO:SIC:v:t=custos d	!	!	!
.	.	2G/	-a	1c\	.
8D/L	-ri-	.	.	.	.
8C/J	-a	.	.	.	.
*	*	*	*	*Xlig	*
=26-	=26-	=26-	=26-	=26-	=26-
!	!	!LO:LB:g=original	!	!	!
1D	tu-	1d	tu-	.	.
!	!	!	!	!LO:TX:t=P:problem:kreska pseudotaktowa	!
.	.	.	.	2B\	.
1C	-a	1G	-a	2c,<\	-ra
.	.	.	.	2G/	et
=27-	=27-	=27-	=27-	=27-	=27-
!	!	!	!	!LO:TX:t=P:problem:kreska pseudotaktowa	!
!	!	!	!	!LO:LB:g=original	!
0r	.	1d	glo-	1B-X	ter-
.	.	2c/	-ri-	2A/	-ra
*	*	*	*	*	*ij
!	!	!	!	!LO:TX:t=P:problem:kreska pseudotaktowa	!
.	.	2A/	-a	2c\	et
=28-	=28-	=28-	=28-	=28-	=28-
1G	glo-	1B	tu-	4Bny\	ter-
.	.	.	.	4c\	.
.	.	.	.	4d\	.
!	!	!	!	!LO:TX:t=P:problem:kreska pseudotaktowa	!
.	.	.	.	4B\	.
2F/	-ri-	2A/	-a	2c\	.
2D/	-a	2d\	glo-	2F/	-ra
*	*	*	*	*	*Xij
=29-	=29-	=29-	=29-	=29-	=29-
1E	tu-	2B/	-ri-	0r	.
.	.	2c/	-a	.	.
2D/	-a	1d	tu-	.	.
*	*ij	*	*	*	*
2G\	glo-	.	.	.	.
=30-	=30-	=30-	=30-	=30-	=30-
2F/	-ri-	2A/	-a	1r	.
*	*	*	*ij	*	*
!LO:SIC:v:t=custos E	!	!	!	!	!
2D/	-a	1d	glo-	.	.
1E	tu-	.	.	1G	ter-
.	.	2c/	-ri-	.	.
=31-	=31-	=31-	=31-	=31-	=31-
2D/	-a	1.d	-a	2A/	-ra
1G	glo-	.	.	2.B\	glo-
.	.	.	.	4B\	-ri-
!	!	!	!	!LO:TX:t=P:problem:kreska pseudotaktowa	!
2C/	-ri-	2.e\	tu-	2.c\	-a
=32-	=32-	=32-	=32-	=32-	=32-
1E	-a	.	.	.	.
.	.	4d\	.	4B\	.
.	.	4B/	.	4A/	.
.	.	4c/	.	4G/	.
1D	tu-	1d	.	1A	tu-
=33-	=33-	=33-	=33-	=33-	=33-
!	!	!	!	!LO:TX:b:t=ut	!
!	!	!	!	!LO:TX:t=P:problem:korekta 0A	!
0G;<	-a	0d;;	-a	0G;;	-a
*	*Xij	*	*Xij	*	*
=34||-	=34||-	=34||-	=34||-	=34||-	=34||-
*M2/1	*	*M2/1	*	*M2/1	*
*met(C|)	*	*met(C|)	*	*met(C|)	*
!LO:TX:t=P:problem:reklamant (tenor)	!	!	!	!	!
!LO:TX:t=P:problem:przed kluczem inicjał O	!	!LO:TX:t=P:problem:przed kluczem inicjał O	!	!LO:TX:t=P:problem:przed kluczem inicjał O	!
!	!	!LO:PB:g=original	!	!	!
0r	.	1d	O-	1r	.
.	.	2B/	-San-	1d	O-
.	.	2G/	-na	.	.
=35-	=35-	=35-	=35-	=35-	=35-
1G	O-	2d\	in-	2B\	-San-
!	!	!	!	!LO:TX:t=P:problem:kreska pseudotaktowa	!
.	.	2d\	-ex-	2G/	-na
2E/	-ſan-	1e	-cel-	2B\	in
2C/	-na	.	.	2.c\	ex-
=36-	=36-	=36-	=36-	=36-	=36-
2G\	in	1d	-sis	.	.
.	.	.	.	8B\L	.
.	.	.	.	8A\J	.
!	!	!	!	!LO:TX:t=P:problem:kreska pseudotaktowa	!
2G\	ex-	.	.	2B\	-cel-
1A	-cel-	1r	.	2c,<\	-ſis
!	!	!	!	!LO:TX:t=P:problem:osanna innym tuszem	!
.	.	.	.	2A/	o-
=37-	=37-	=37-	=37-	=37-	=37-
1G	-sis	2d\	O-	2B\	-san-
!	!	!	!	!LO:TX:t=P:problem:kreska pseudotaktowa	!
.	.	1g	-san-	2G/	-na
1r	.	.	.	2d\	in
!	!	!LO:SIC:v:s=2f#	!	!	!
.	.	2f\	-na	2d\	ex-
=38-	=38-	=38-	=38-	=38-	=38-
1c	O-	2g\	in-	1e	-cel-
.	.	1e	-ex-	.	.
!	!	!	!	!LO:SIC:v:t=custos c	!
2A\	-san-	.	.	1c	-sis
2F/	-na	2.f\	-cel-	.	.
=39-	=39-	=39-	=39-	=39-	=39-
!	!	!	!	!LO:LB:g=original	!
2c\	in	.	.	0r	.
.	.	8e\L	.	.	.
.	.	8d\J	.	.	.
2c\	ex-	2e\	.	.	.
!LO:SIC:v:t=custos c	!	!	!	!	!
1d	-cel-	2f,<\	-ſis	.	.
!	!	!LO:SIC:v:t=custos e	!	!	!
.	.	2d\	O-	.	.
=40-	=40-	=40-	=40-	=40-	=40-
!LO:LB:g=original	!	!LO:LB:g=original	!	!	!
1c	-ſis	2e\	-san-	2r	.
.	.	2e\	-na	2c\	O-
1rF	.	1f	in-	2A/	-san-
!	!	!	!	!LO:TX:t=P:problem:kreska pseudotaktowa	!
.	.	.	.	2F/	-na
=41-	=41-	=41-	=41-	=41-	=41-
*	*ij	*	*	*	*
1C	O-	2e\	-ex-	2c\	in
.	.	2.c/	-cel-	2c\	ex-
!	!	!	!	!LO:TX:t=P:problem:kreska pseudotaktowa	!
2G\	-san-	.	.	1d	-cel-
.	.	8B/L	.	.	.
.	.	8A/J	.	.	.
2G\	-na	2B/	.	.	.
=42-	=42-	=42-	=42-	=42-	=42-
2A\	in	1c	-sis	2c,<\	-ſis
*	*	*	*	*	*ij
2F/	ex-	.	.	2A/	O-
1G	-cel-	1r	.	2B\	-san-
.	.	.	.	2B\	-na
=43-	=43-	=43-	=43-	=43-	=43-
1C	-sis	2r	.	2c,<\	in
*	*	*	*ij	*	*
.	.	2e\	O-	2c\	ex-
1rF	.	2d\	-san-	1G	-cel-
.	.	2d\	-na	.	.
=44-	=44-	=44-	=44-	=44-	=44-
1c	O-	2.e\	in	1C	-ſis
*	*	*	*	*	*Xij
.	.	4d\	ex-	.	.
2A\	-san-	2e\	-cel-	0r	.
2F/	-na	2f\	-sis	.	.
=45-	=45-	=45-	=45-	=45-	=45-
2c\	in	2e\	O-	.	.
2c\	ex-	2.g\	-san-	.	.
!	!	!	!	!LO:SIC:v:t=custos c	!
1d	-cel-	.	.	1r	.
.	.	4f\	-na	.	.
.	.	1f\	in	.	.
=46-	=46-	=46-	=46-	=46-	=46-
!	!	!	!	!LO:LB:g=original	!
1c,<	-sis.	.	.	2r	.
*	*Xij	*	*	*	*ij
!	!	!LO:SIC:v:t=custos f	!	!LO:TX:t=P:problem:kreska pseudotaktowa	!
.	.	2e\	ex-	2c\	O-
1F	O-	2f\	-cel-	2c\	-san-
.	.	2f\	-sis	2A/	-na
=47-	=47-	=47-	=47-	=47-	=47-
!LO:SIC:v:t=custos C	!	!	!	!	!
1G	-san-	2d\	O-	2B\	in
!	!	!	!	!LO:TX:t=P:problem:kreska pseudotaktowa	!
.	.	2d\	-san-	2B\	ex-
!LO:LB:g=original	!	!	!	!	!
2C/	-na	2e\	-na	1.c	-cel-
1F\	in	2.f\	in	.	.
=48-	=48-	=48-	=48-	=48-	=48-
.	.	.	.	.	.
.	.	4e\	.	.	.
2G\	ex-	4d\	ex-	2B\	.
.	.	4c/	.	.	.
1D	-cel-	1d	-cel-	1A	.
=49-	=49-	=49-	=49-	=49-	=49-
0G;;	-ois.	0d;;	-sis	0G;;	-ſis
*	*	*	*Xij	*	*Xij
=50||-	=50||-	=50||-	=50||-	=50||-	=50||-
*M2/1	*	*M2/1	*	*M2/1	*
*met(C|)	*	*met(C|)	*	*met(C|)	*
!	!	!LO:TX:a:t=a3	!	!LO:TX:a:t=Benedictus\nTacet.	!
!	!	!LO:LB:g=original	!	!LO:LB:g=original	!
!LO:TX:t=P:problem:przed kluczem inicjał B	!	!LO:TX:t=P:problem:przed kluczem inicjał B	!	!	!
1C	Be-	0r	.	0ryy	.
2D/	-ne-	.	.	.	.
1F\	-di-	.	.	.	.
=51-	=51-	=51-	=51-	=51-	=51-
.	.	1G	Be-	0ryy	.
2E/	-ctus	.	.	.	.
1F	qui	2A/	-ne-	.	.
.	.	1c\	-di-	.	.
=52-	=52-	=52-	=52-	=52-	=52-
1E	ve-	.	.	0ryy	.
.	.	2B/	.	.	.
1C	-nit	1c	-ctus	.	.
=53-	=53-	=53-	=53-	=53-	=53-
1rF	.	2A/	qui	0ryy	.
.	.	2.d\	Ve-	.	.
!LO:SIC:v:t=custos A	!	!	!	!	!
1G	Be-	.	.	.	.
.	.	4c/	.	.	.
.	.	4B/	.	.	.
.	.	8A/L	.	.	.
.	.	8B/J	.	.	.
=54-	=54-	=54-	=54-	=54-	=54-
!LO:LB:g=original	!	!	!	!	!
2A\	-ne-	1c	.	0ryy	.
1c	-di-	.	.	.	.
.	.	1G	-nit	.	.
2B\	-ctus	.	.	.	.
=55-	=55-	=55-	=55-	=55-	=55-
1c	qui	1rd	.	0ryy	.
*	*	*	*ij	*	*
1A	ve-	1c	Be-	.	.
=56-	=56-	=56-	=56-	=56-	=56-
1G	-nit	2B/	-ne-	0ryy	.
.	.	2.d\	-di-	.	.
1rF	.	.	.	.	.
.	.	4c/	.	.	.
.	.	1c\	-ctus	.	.
=57-	=57-	=57-	=57-	=57-	=57-
1G	in	.	.	0ryy	.
!	!	!LO:SIC:v:t=custos c	!	!	!
.	.	2B/	qui	.	.
!	!	!LO:LB:g=original	!	!	!
2F/	no-	2c/	Ve-	.	.
2D/	-mi-	2d\	.	.	.
=58-	=58-	=58-	=58-	=58-	=58-
1F	-ne	2c/	-nit	0ryy	.
*	*	*	*Xij	*	*
.	.	2A/	in	.	.
2.E/	Do-	2B/	no-	.	.
.	.	4A/	-mi-	.	.
4E/	-mi-	4G/	-ne	.	.
=59-	=59-	=59-	=59-	=59-	=59-
0D	-ni	2.A/	Do-	0ryy	.
.	.	4G/	-mi-	.	.
.	.	2A/	-ni	.	.
.	.	2.d\	Do-	.	.
=60-	=60-	=60-	=60-	=60-	=60-
1rF	.	.	.	0ryy	.
.	.	4c/	-mi-	.	.
.	.	1c	-ni	.	.
1G	in	.	.	.	.
*	*	*	*ij	*	*
.	.	2B/	Be-	.	.
=61-	=61-	=61-	=61-	=61-	=61-
2F/	no-	2c/	ne-	0ryy	.
2D/	-mi-	2d\	-di-	.	.
!LO:SIC:v:t=custos D	!	!	!	!	!
1E	-ne	2B/	-ctus	.	.
.	.	2G/	qui	.	.
=62-	=62-	=62-	=62-	=62-	=62-
!LO:PB:g=original	!	!	!	!	!
2.D/	Do-	1A	Ve-	0ryy	.
4D/	-mi-	.	.	.	.
1C	-ni	2.c/	-nit	.	.
.	.	4B/	in	.	.
=63-	=63-	=63-	=63-	=63-	=63-
2r	.	2A/	no-	0ryy	.
!	!	!LO:SIC:v:t=custos G	!	!	!
2c\	in	2A/	-mi-	.	.
!	!	!LO:LB:g=original	!	!	!
2B\	no-	2G/	-ne	.	.
2G\	-mi-	2d\	Do-	.	.
=64-	=64-	=64-	=64-	=64-	=64-
1A	-ne	2c/	-mi-	0ryy	.
.	.	2A/	-ni	.	.
2.G\	Do-	2B/	Be-	.	.
.	.	1d\	-ne-	.	.
4F/	.	.	.	.	.
=65-	=65-	=65-	=65-	=65-	=65-
2E/	.	.	.	0ryy	.
2E/	-mi-	2c/	-di-	.	.
1D	-ni	2d\	-ctus	.	.
.	.	2A/	qui	.	.
=66-	=66-	=66-	=66-	=66-	=66-
2rD	.	2c/	Ve-	0ryy	.
*	*ij	*	*	*	*
2G\	in	2B/	-nit	.	.
2F/	no-	2A/	in	.	.
2D/	-mi-	2d\	no-	.	.
=67-	=67-	=67-	=67-	=67-	=67-
1E	-ne	2B/	-mi-	0ryy	.
.	.	2G/	-ne	.	.
*lig	*	*	*	*	*
1D	Do-	1A	Do-	.	.
=68-	=68-	=68-	=68-	=68-	=68-
1.C	.	1.c	.	0ryy	.
*Xlig	*	*	*	*	*
2C/	-mi-	2c/	-mi-	.	.
=69-	=69-	=69-	=69-	=69-	=69-
!	!	!LO:TX:t=P:problem:dopisek ołówkiem: Oſanna ut Supra	!	!	!
0G;;	-ni	0B;;	-ni	0ryy	.
*	*Xij	*	*Xij	*	*
!LO:LB:g=original	!	!LO:PB:g=original	!	!LO:LB:g=original	!
=-	=-	=-	=-	=-	=-
*-	*-	*-	*-	*-	*-
!!!system-decoration: [(s1,s2,s3,s4)]
!!!ENC: Krzysztof Stępień
!!!END: 2021-03-08
!!!ENC: Marta Chmielewska
!!!END: 2021-03-23
!!!RDF**kern: < = below
!!!RDF**kern: > = above
